!!!!SEGMENT: pl-wtm--r-2471_hertz-michal--nie-wydrzecie.krn
!!!cenid: 18xx:2391
!!!COM: Hertz, Michał
!!!COM-rismid: pe41023359
!!!CDT: 1844/09/28-~1918
!!!CNT: Polish
!!!OTL: Nie wydrzecie
!!!PDT:
!!!AGN:
!!!SMS-siglum: PL-Wtm
!!!SMS-shelfmark: R 2471
!!!SMS-shelfwork: W
!!!SMS-variant:
!!!SMS-altvar:
!!!NIFC-rismid: 1001083277
!!!URL-scan: http://repozytorium.nifc.pl/skany/pl-wtm-nut--r2471
!!!ONB-nifc:
!!!AIN: 1 empty 1 vox
!!!key:
**kern	**kern	**dynam	**kern	**text	**text	**text	**text	**text	**dynam
*part2	*part2	*part2	*part1	*part1	*part1	*part1	*part1	*part1	*part1
*staff3	*staff2	*	*staff1	*staff1	*staff1	*staff1	*staff1	*staff1	*
*Iempty	*Iforte	*	*Ivox	*	*	*	*	*	*
*Fortepian	*I"Fortepian	*	*I"Głos	*	*	*	*	*	*
*clefF4	*clefG2	*	*clefG2	*	*	*	*	*	*
*k[]	*k[]	*	*k[]	*	*	*	*	*	*
*C:	*C:	*	*C:	*	*	*	*	*	*
*M3/4	*M3/4	*	*M3/4	*	*	*	*	*	*
=1	=1	=1	=1	=1	=1	=1	=1	=1	=1
!	!LO:TX:t=P:problem=poprawki nutowe zawrzeć w 1 wersji (główny skryptor)(EZ)	!	!LO:TX:t=P:druk: https://polona.pl/item/nie-wydrzecie,MzQ5MTQyNTQ/1/#info:metadata:problem	!	!	!	!	!	!
!	!LO:TX:a:i:t=Allegro moderato.	!LO:DY:rj	!LO:TX:t=P:problem=all\middle or right&colon; global	!	!	!	!	!	!
2.r	(4.gg 4.ee\	f	2.r	.	.	.	.	.	.
.	16eeLL 16cc\	.	.	.	.	.	.	.	.
.	16ddJJ 16g\	.	.	.	.	.	.	.	.
.	8.ccL 8.e\	.	.	.	.	.	.	.	.
.	16aJk 16f\)	.	.	.	.	.	.	.	.
=2	=2	=2	=2	=2	=2	=2	=2	=2	=2
4r	(>4g 4e/	.	2.r	.	.	.	.	.	.
4r	4e 4c/)	.	.	.	.	.	.	.	.
8r	8r	.	.	.	.	.	.	.	.
8E\	8g 8c/	.	.	.	.	.	.	.	.
=3	=3	=3	=3	=3	=3	=3	=3	=3	=3
*	*^	*	*	*	*	*	*	*	*
8F\	8a 8c/	8ryy	.	2.r	.	.	.	.	.	.
8r	8r	8r	.	.	.	.	.	.	.	.
8.r	4..ff/	8.r	.	.	.	.	.	.	.	.
16B 16A 16D\	.	16f\	.	.	.	.	.	.	.	.
4B 4G\	.	8.f\L	.	.	.	.	.	.	.	.
.	16ee/	16e\Jk	.	.	.	.	.	.	.	.
*	*v	*v	*	*	*	*	*	*	*	*
=4	=4	=4	=4	=4	=4	=4	=4	=4	=4
!	!LO:TX:t=P:łuk:problem	!	!	!	!	!	!	!	!
4r	(4ee (4e\	.	2.r	.	.	.	.	.	.
4G 4C\	4cc) 4e 4c\)	.	.	.	.	.	.	.	.
4r	4r	.	.	.	.	.	.	.	.
!!LO:LB:g=original
=5||	=5||	=5||	=5||	=5||	=5||	=5||	=5||	=5||	=5||
*2\right	*	*	*	*	*	*	*	*	*
!	!	!LO:DY:rj	!	!	!	!	!	!	!LO:DY:b:rj
[2.G [2.C\	(8eL 8c/	p	8e/	Myś-	Myś-	Nam	Nam	Nie	p
.	8fJ 8d/	.	8f/	-my	-my	w tych	w tych	wy-	.
.	(4g (4e/	.	(4g/	pra-	wszy-	pro-	pro-	-drze-	.
.	8aL) 8f/)	.	8a/)	.	.	.	.	.	.
.	8bJ 8d/	.	8b\	-wie	-scy	-chach	-chach	-cie	.
=6	=6	=6	=6	=6	=6	=6	=6	=6	=6
2G] 2C\]	8ccL 8e\	.	8cc\	wroś-	z Pia-	wszyst-	dzia-	z serc	.
.	8eeJ 8g\	.	8ee\	-li	-sta	-kie	-dów	i	.
.	4cc 4e\	.	4cc\	w zie-	so-	e-	ko-	dło-	.
4E 4EE\	4b 4g 4c\)	.	4b\	-mię	-chy,	-cha,	-ści	-ni!	.
=7	=7	=7	=7	=7	=7	=7	=7	=7	=7
(4F 4FF\	(8aL 8f 8c\	.	8a/	Od	Szli	Wszyst-	I	Jak	.
.	8bJ 8g 8d\	.	8b\	le-	tą	-kie	mo-	ta	.
4E 4EE\	4cc 4g 4c\	.	(4cc\	-mie-	zie-	bar-	-gi-	zie-	.
8E-XL 8EE-X\	8cc#XL 8a 8g\	.	8cc#X\)	.	.	.	.	.	.
8DJ 8DD\	8ddJ 8a 8f\	.	8dd\	-sza	-mią	-wy,	-ła	-mia	.
=8	=8	=8	=8	=8	=8	=8	=8	=8	=8
4F 4FF\	8eeL 8a 8g\	.	8ee\	do	krwią	Wszyst-	przy	wszerz	.
.	8ddJ 8a 8f\	.	8dd\	pa-	i	-kie	mo-	i	.
4G 4GG\	4b 4f 4d/	.	4b\	-ła-	po-	to-	-gi-	dłu-	.
4B 4BB\)	4g 4f 4d/)	.	4g/	-sza!	-tem,	-ny!	-le!	-ga!	.
!!LO:LB:g=original
=9	=9	=9	=9	=9	=9	=9	=9	=9	=9
!LO:N:vis=8.	!	!	!	!	!	!	!	!	!
(8cL 8C\	(8eL 8c/	.	8e/	wszyst-	Nam	Sta-	I	Pó-	.
8AJ 8AA\	8fJ 8c/	.	8f/	-ko	te	-ry	sto	-ki	.
4E 4EE\	4g 4c/	.	(4g/	szczę-	ski-	het-	tę-	je-	.
8FL 8FF\	8aL 8f 8c\	.	8a/)	.	.	.	.	.	.
8DJ 8DD\	8bJ 8g 8f\	.	8b\	-ście,	-by	-man	-czy	-den	.
=10	=10	=10	=10	=10	=10	=10	=10	=10	=10
*	*^	*	*	*	*	*	*	*	*
*	*	*2\right	*	*	*	*	*	*	*	*
8EL 8EE\	8cc/L	2g 2c\	.	8cc\	wszyst-	sza-	się	z dni	pa-	.
8CJ 8CC\	8ee/J	.	.	8ee\	-ko	-re	u-	wol-	-cierz	.
4E 4EE\	4cc/	.	.	4cc\	brze-	pro-	-śmie-	-no-	dzwo-	.
4G 4GG\)	4b/)	4e 4c\	.	4b\	-mię	-chy	-cha,	-ści!	-ni,	.
*	*v	*v	*	*	*	*	*	*	*	*
=11	=11	=11	=11	=11	=11	=11	=11	=11	=11
(4F (4FF\	(8aL 8f 8c/	<	8a/	To	Po-	Zyg-	I	Pó-	<
.	8bJ 8g 8d/	.	8b\	ta	-nad	-mun-	łez	-ki	.
8EL) 8EE\)	8ccL 8g 8c/	.	(8cc\L	pol-	zo-	-to-	ty-	je-	.
8G 8GG\	8cc#XJ 8a 8e/	.	8cc#X\	.	.	.	.	.	.
8F 8FF\	8ddL 8a 8d\	.	8dd\J)	.	.	.	.	.	.
8EJ 8EE\	8eeJ 8a 8c#X\	[[	8ee\	-ska	-rze	-wskie	-le,	-den	[
=12	=12	=12	=12	=12	=12	=12	=12	=12	=12
*	*^	*	*	*	*	*	*	*	*
(4.D 4.DD\	8.ffL 8.a 8.d\	4ryy	sf >	8.ff^\	zie-	tka-	bi-	i	chłop	.
.	16eeJk 16a 16g\	.	.	16ee\	-mia	-ne	-ją	łez	u	>
.	4dd/	8aL 8f\	.	4dd\	na-	zło-	dzwo-	ty-	płu-	.
!LO:N:vis=8	!	!	!	!	!	!	!	!	!	!
16G 16GG\	.	8gJ 8f 8B\	]	.	.	.	.	.	.	.
!LO:N:vis=8	!	!	!	!	!	!	!	!	!	!
16AAA/	.	.	.	.	.	.	.	.	.	.
4G 4C\)	4cc 4e 4c\)	4ryy	.	4cc\	-sza	-tem!	-ny!	-le	-ga	]
*	*v	*v	*	*	*	*	*	*	*	*
!!LO:PB:g=original
=13	=13	=13	=13	=13	=13	=13	=13	=13	=13
!	!	!LO:DY:rj	!	!	!	!	!	!	!LO:DY:b:rj
4.A\	4.e 4.c/	p	8e/	O-	Nam	Ko-	Dą-	Pó-	p
.	.	.	8e/	-na	w tych	-ściusz-	-brow-	-ki	.
.	.	<	4.a/	mat-	pro-	-kow-	-skie-	je-	.
8A\	8e 8c/	.	.	.	.	.	.	.	.
4c\	4a 4e/	.	.	.	.	.	.	.	.
.	.	.	8a/	-ką	-chach:	-ska	-go	-dna[[ko]]	.
=14	=14	=14	=14	=14	=14	=14	=14	=14	=14
*	*^	*	*	*	*	*	*	*	*
(<4B\	(8a/L	4f 4d\	.	8a/	od	chleb	świt-	gra	pol-	.
.	8g#X/J)	.	.	8g#X/	za-	pio-	-ka	po-	-ska	.
4G#X\	(>4b 4e 4d/	2ryy	[ >	4b/	-ra-	-sen-	bia-	-bud-	mat-	.
4A\)	4a 4e 4c/)	.	]	4a/	-nia,	-ki	-ła...	-ka...	-ka!	<
=15	=15	=15	=15	=15	=15	=15	=15	=15	=15	=15
!	!	!	!LO:DY:rj	!	!	!	!	!	!	!
4.A\	4.e 4.c/	2ryy	p	8e/	O-	Prze-	Ksią-	Ko-	Pó-	.
.	.	.	.	8e/	-na	-szłe,	-żę	-na	-ki	.
.	.	.	.	4.cc\	zbro-	przy-	ju-	czwar-	je-	.
8A\	8e 8c/	.	.	.	.	.	.	.	.	.
8G\L	[4cc 4a/	8e\L	<	.	.	.	.	.	.	.
8F#X\J	.	8aJ 8d#X\	.	8cc\	-ją	-szłe	-nak	-tak	-dno	[[
=16	=16	=16	=16	=16	=16	=16	=16	=16	=16	=16
(4Fn\	(8cc/L]	4g#X 4dn\	.	8cc\	przez	sta-	na	przy	pol-	.
.	8b/J)	.	.	8b\	stu-	-rzec	dzia-	bag-	-skie	.
4E\	(4dd 4g# 4e\	2ryy	.	4dd\	-le-	dzie-	-ne-	-ne-	dzie-	.
.	.	.	[	.	.	.	.	.	.	.
4A\)	4cc 4a 4e\)	.	.	4cc\	-cie!	-cię!	-cie!	-cie...	-cię	.
!!LO:LB:g=original
=17	=17	=17	=17	=17	=17	=17	=17	=17	=17	=17
*	*	*	*	*^	*	*	*	*	*	*
!	!	!	!LO:DY:rj	!	!LO:N:vis=4	!	!	!	!	!	!LO:DY:b:rj
4F#X 4FF#X\	4cc 4a 4d#X\	2ryy	f	8a\	8r	.	I	Bla-	I	Bro-	f
.	.	.	.	8a\	8a/	i	tych	-ski	po-	-nić	.
8r	8r	.	.	(<4cc\	2ryy	dziś	pro-	chmu-	-wstań-	bę-	.
!	!LO:SIC:v:n=2:s=8f#	!	!	!	!	!	!	!	!	!	!
8A 8AA\	8cc 8f 8d#\	.	<	.	.	.	.	.	.	.	.
4c 4C\	(8b/L	4f 4d#\	.	8b\)	.	te-	.	.	.	.	.
!	!	!	!	!	!	!	!	!	!	!	!LO:HP:b
.	8a/J)	.	.	8a\	.	-go,	-chów	-ry..	-czej	-dziem	<
*	*	*	*	*v	*v	*	*	*	*	*	*
=18	=18	=18	=18	=18	=18	=18	=18	=18	=18	=18
4d#X 4D#X\	(8b/L	4a 4f#X\	.	8b\	u-	z na-	bó-	zie-	do	.
.	8cc/J)	.	[	8cc\	-ko-	-szej	-le	-mi	o-	.
2f#X 2F#X\	(4ee/	2cc 2a\	.	4ee\	-cha-	rę-	chwa-	grud-	-stat-	[
.	4dd#X/)	.	.	4dd#X\	-nia	-ki	-ły!	-ka...	-ka...	.
*	*v	*v	*	*	*	*	*	*	*	*
=19	=19	=19	=19	=19	=19	=19	=19	=19	=19
*^	*	*	*	*	*	*	*	*	*
*	*	*	*	*	*	*	*	*ij	*ij	*
!	!	!	!LO:DY:rj	!	!	!	!	!	!	!LO:DY:b
4.g\	2.G\	4.ee 4.cc\	ff	8ee\	Na-	Po	Nie	Nie	Nie	ff
.	.	.	.	8cc\	-wet	wiek	wy-	wy-	wy-	.
*	*	*	*	*2\right	*	*	*	*	*	*
.	.	.	.	[2gg\	z ży-	wie-	-drze-	-drze-	-drze-	.
16e\LL	.	16ccLL 16g\	.	.	.	.	.	.	.	.
16e\JJ	.	16ccJJ 16g\	.	.	.	.	.	.	.	.
4c\	.	4g 4e/	.	.	.	.	.	.	.	.
*v	*v	*	*	*	*	*	*	*	*	*
=20	=20	=20	=20	=20	=20	=20	=20	=20	=20
4G\	4e 4c/	.	4.gg\]	.	.	.	.	.	.
4.E\	4.c 4.G/	.	.	.	.	.	.	.	.
.	.	.	8ee\	-ciem	-ków	-cie	-cie	-cie	.
.	.	.	8cc\	nie	nie	nie	nie	nie	.
8C\	8G< 8E</	.	8g/	wy-	wy-	wy-	wy-	wy-	.
!!LO:LB:g=original
=21	=21	=21	=21	=21	=21	=21	=21	=21	=21
8BB\	8G< 8F< 8D</	.	[2.dd\	-drze-	-drze-	-drze-	-drze-	-drze-	.
8r	8ryy	.	.	.	.	.	.	.	.
4..AA\	4..A< 4..F< 4..D</	.	.	.	.	.	.	.	.
16GG\	16B< 16F< 16D</	.	.	.	.	.	.	.	.
=22	=22	=22	=22	=22	=22	=22	=22	=22	=22
(<4GG 4GGG\	(4B< 4G< 4F</	.	4dd\]	.	.	.	.	.	.
4C 4CC\)	4c< 4G< 4E</)	.	4cc\	-cie!	-cie!	-cie!	-cie!	-cie!	.
*	*	*	*	*	*	*	*Xij	*Xij	*
4r	4ryy	.	4r	.	.	.	.	.	.
=||	=||	=||	=||	=||	=||	=||	=||	=||	=||
*-	*-	*-	*-	*-	*-	*-	*-	*-	*-
!!!system-decoration: {s1}{(s2,s3)}
!!!RDF**kern: > = above
!!!RDF**kern: < = below
!!!ENC: Katarzyna Serwa
!!!END: 2021-06-10
!!!ENC: Marta Lawrence
!!!END: 2021-10-09
